x-pack/solutions/observability/plugins/apm/public/components/shared/span_icon/icons/table_storage.svg

<svg width="19" height="18" viewBox="0 0 19 18" fill="none" xmlns="http://www.w3.org/2000/svg">
<g clip-path="url(#clip0_1421_84663)">
<path d="M14 1.18799H5L0.5 8.99999L5 16.812H14L18.5 8.99999L14 1.18799ZM9.068 5.292H11.156V7.37999H9.068V5.292ZM9.068 7.88399H11.156V9.972H9.068V7.88399ZM9.068 10.512H11.156V12.6H9.068V10.512ZM6.44 5.292H8.528V7.37999H6.44V5.292ZM6.44 7.88399H8.528V9.972H6.44V7.88399ZM6.44 10.512H8.528V12.6H6.44V10.512ZM13.748 13.716H5.252V5.21999H5.792V13.14H5.828H13.748V13.716ZM13.748 12.6H11.66V10.512H13.748V12.6ZM13.748 9.972H11.66V7.88399H13.748V9.972ZM13.748 7.37999H11.66V5.292H13.748V7.37999Z" fill="#59B4D9"/>
<path d="M11.1561 5.29199H9.06812V7.37999H11.1561V5.29199Z" fill="#0072C6"/>
<path d="M11.1561 7.88403H9.06812V9.97204H11.1561V7.88403Z" fill="#0072C6"/>
<path d="M11.1561 10.512H9.06812V12.6H11.1561V10.512Z" fill="#0072C6"/>
<path d="M8.52794 5.29199H6.43994V7.37999H8.52794V5.29199Z" fill="#0072C6"/>
<path d="M8.52794 7.88403H6.43994V9.97204H8.52794V7.88403Z" fill="#0072C6"/>
<path d="M8.52794 10.512H6.43994V12.6H8.52794V10.512Z" fill="#0072C6"/>
<path d="M13.7479 10.512H11.6599V12.6H13.7479V10.512Z" fill="#0072C6"/>
<path d="M13.7479 7.88403H11.6599V9.97204H13.7479V7.88403Z" fill="#0072C6"/>
<path d="M13.7479 5.29199H11.6599V7.37999H13.7479V5.29199Z" fill="#0072C6"/>
</g>
<defs>
<clipPath id="clip0_1421_84663">
<rect width="18" height="18" fill="white" transform="translate(0.5)"/>
</clipPath>
</defs>
</svg>

<svg xmlns="http://www.w3.org/2000/svg" width="19" height="18" fill="none"><g clip-path="url(#a)"><path fill="#59B4D9" d="M14 1.188H5L.5 9 5 16.812h9L18.5 9zM9.068 5.292h2.088V7.38H9.068zm0 2.592h2.088v2.088H9.068zm0 2.628h2.088V12.6H9.068zM6.44 5.292h2.088V7.38H6.44zm0 2.592h2.088v2.088H6.44zm0 2.628h2.088V12.6H6.44zm7.308 3.204H5.252V5.22h.54v7.92h7.956zm0-1.116H11.66v-2.088h2.088zm0-2.628H11.66V7.884h2.088zm0-2.592H11.66V5.292h2.088z"/><path fill="#0072C6" d="M11.156 5.292H9.068V7.38h2.088zM11.156 7.884H9.068v2.088h2.088zM11.156 10.512H9.068V12.6h2.088zM8.528 5.292H6.44V7.38h2.088zM8.528 7.884H6.44v2.088h2.088zM8.528 10.512H6.44V12.6h2.088zM13.748 10.512H11.66V12.6h2.088zM13.748 7.884H11.66v2.088h2.088zM13.748 5.292H11.66V7.38h2.088z"/></g><defs><clipPath id="a"><path fill="#fff" d="M.5 0h18v18H.5z"/></clipPath></defs></svg>
